components/Icon/icons/nextjs.svg

<svg width="84" height="50" viewBox="0 0 84 50" fill="none" xmlns="http://www.w3.org/2000/svg">
<g clip-path="url(#clip0)">
<path d="M19.6189 13.0358H35.301V14.2778H21.0564V23.6252H34.4517V24.8672H21.0564V35.1298H35.4644V36.3717H19.6189V13.0358ZM36.7061 13.0358H38.3722L45.7558 23.2984L53.3028 13.0356L63.5679 0L46.7032 24.377L55.3938 36.3717H53.6622L45.7558 25.4555L37.8167 36.3717H36.1179L44.8737 24.3769L36.7059 13.0358H36.7061ZM56.0145 14.2778V13.0356H73.8857V14.2777H65.6524V36.3715H64.2149V14.2778H56.0145V14.2778ZM0 13.0356H1.7969L26.5751 49.9811L16.3356 36.3715L1.5028 14.8006L1.43752 36.3718H0V13.0356ZM73.7408 34.7547C73.447 34.7547 73.2268 34.5282 73.2268 34.235C73.2268 33.9421 73.447 33.7152 73.7408 33.7152C74.038 33.7152 74.2548 33.9419 74.2548 34.235C74.2548 34.528 74.038 34.7547 73.7408 34.7547ZM75.1533 33.3874H75.9226C75.933 33.8024 76.2371 34.0816 76.6847 34.0816C77.1847 34.0816 77.4679 33.7816 77.4679 33.2199V29.6617H78.2512V33.2233C78.2512 34.235 77.6638 34.8176 76.6917 34.8176C75.779 34.8176 75.1533 34.2524 75.1533 33.3872V33.3874ZM79.2755 33.3421H80.0518C80.1182 33.8199 80.5867 34.1233 81.2616 34.1233C81.8909 34.1233 82.3524 33.7989 82.3524 33.3524C82.3524 32.9688 82.0587 32.7385 81.3909 32.5816L80.7405 32.4246C79.8279 32.2117 79.412 31.7722 79.412 31.0327C79.412 30.1362 80.1461 29.5396 81.2475 29.5396C82.2719 29.5396 83.0202 30.1361 83.0657 30.9838H82.3034C82.23 30.5199 81.8243 30.2303 81.237 30.2303C80.6182 30.2303 80.2057 30.5269 80.2057 30.9803C80.2057 31.3395 80.4713 31.5455 81.1286 31.6989L81.6845 31.835C82.7195 32.0757 83.1461 32.4943 83.1461 33.2513C83.1461 34.2141 82.3979 34.8176 81.2022 34.8176C80.0833 34.8176 79.3314 34.2419 79.2755 33.3419V33.3421Z" fill="black"/>
</g>
<defs>
<clipPath id="clip0">
<rect width="83.1461" height="50" fill="white"/>
</clipPath>
</defs>
</svg>

<svg xmlns="http://www.w3.org/2000/svg"
viewBox="0 0 84 50" width="100%" height="100%" fill="black"  xmlns:v="https://vecta.io/nano"><g clip-path="url(#A)"><path d="M19.619 13.036h15.682v1.242H21.056v9.347h13.395v1.242H21.056V35.13h14.408v1.242H19.619V13.036zm17.087 0h1.666l7.384 10.263 7.547-10.263L63.568 0 46.703 24.377l8.691 11.995h-1.732l-7.906-10.916-7.939 10.916h-1.699l8.756-11.995-8.168-11.341zm19.308 1.242v-1.242h17.871v1.242h-8.233v22.094h-1.437V14.278h-8.2zM0 13.036h1.797l24.778 36.945-10.239-13.61L1.503 14.801l-.065 21.571H0V13.036zm73.741 21.719c-.294 0-.514-.227-.514-.52s.22-.52.514-.52.514.227.514.52-.217.52-.514.52zm1.413-1.367h.769c.01.415.314.694.762.694.5 0 .783-.3.783-.862v-3.558h.783v3.562c0 1.012-.587 1.594-1.559 1.594-.913 0-1.538-.565-1.538-1.43h0zm4.122-.045h.776c.066.478.535.781 1.21.781.629 0 1.091-.324 1.091-.771 0-.384-.294-.614-.962-.771l-.65-.157c-.913-.213-1.328-.652-1.328-1.392 0-.896.734-1.493 1.835-1.493 1.024 0 1.773.596 1.818 1.444h-.762c-.073-.464-.479-.753-1.066-.753-.619 0-1.031.297-1.031.75 0 .359.266.565.923.719l.556.136c1.035.241 1.462.659 1.462 1.416 0 .963-.748 1.566-1.944 1.566-1.119 0-1.871-.576-1.927-1.476h0z" fill="black"/></g><defs><clipPath id="A"><path fill="black" d="M0 0h83.146v50H0z"/></clipPath></defs></svg>
